assets/icons/arrow-left.svg

<svg width="24" height="25" viewBox="0 0 24 25" fill="none" xmlns="http://www.w3.org/2000/svg">
<path d="M18.1653 20.6632C18.5274 20.9789 18.6102 21.5373 18.3422 21.9562C18.074 22.3751 17.5503 22.5059 17.1352 22.2733L17.0536 22.2219L6.81759 14.9979C6.01914 14.4345 5.5 13.5965 5.5 12.6376C5.50001 11.7386 5.95577 10.9456 6.67069 10.3857L6.81759 10.2772L17.0536 3.05325L17.1352 3.00183C17.5503 2.76925 18.074 2.90001 18.3422 3.3189C18.6102 3.73787 18.5274 4.29627 18.1653 4.61191L18.0892 4.6719L7.85316 11.8958L7.71442 12.0034C7.42272 12.2547 7.35714 12.4926 7.35714 12.6376C7.35714 12.8032 7.44285 13.0897 7.85316 13.3793L18.0892 20.6032L18.1653 20.6632Z" fill="#111111"/>
</svg>

<svg xmlns="http://www.w3.org/2000/svg" width="24" height="25" fill="none" viewBox="0 0 24 25"><path fill="#111" d="M18.165 20.663c.362.316.445.874.177 1.293a.903.903 0 0 1-1.207.317l-.081-.051-10.236-7.224c-.799-.563-1.318-1.401-1.318-2.36 0-.9.456-1.692 1.17-2.252l.148-.109 10.236-7.224.081-.051a.903.903 0 0 1 1.207.317 1.01 1.01 0 0 1-.177 1.293l-.076.06-10.236 7.224-.139.107c-.291.252-.357.49-.357.635 0 .165.086.452.496.741l10.236 7.224z"/></svg>
